media/kauf_bkt/type3/1.svg

<svg xmlns:inkscape="http://www.inkscape.org/namespaces/inkscape" xmlns:sodipodi="http://sodipodi.sourceforge.net/DTD/sodipodi-0.dtd" xmlns="http://www.w3.org/2000/svg" xmlns:svg="http://www.w3.org/2000/svg" xmlns:vectornator="http://vectornator.io" stroke-miterlimit="10" style="clip-rule:evenodd;fill-rule:nonzero;stroke-linecap:round;stroke-linejoin:round" version="1.1" viewBox="0 0 530 527.18835" xml:space="preserve" id="svg5" sodipodi:docname="1.svg" inkscape:version="1.3 (0e150ed6c4, 2023-07-21)" class="">
    <sodipodi:namedview id="namedview5" pagecolor="#ffffff" bordercolor="#666666" borderopacity="1.0" inkscape:showpageshadow="2" inkscape:pageopacity="0.0" inkscape:pagecheckerboard="0" inkscape:deskcolor="#d1d1d1" inkscape:zoom="0.5870744" inkscape:cx="262.31769" inkscape:cy="223.99205" inkscape:window-width="1920" inkscape:window-height="1120" inkscape:window-x="-11" inkscape:window-y="-11" inkscape:window-maximized="1" inkscape:current-layer="svg5"/>
<defs id="defs1">
        <inkscape:path-effect effect="knot" id="path-effect5" is_visible="true" lpeversion="1" switcher_size="15" interruption_width="4.2" prop_to_stroke_width="true" add_stroke_width="inkscape_1.0_and_up" both="false" inverse_width="false" add_other_stroke_width="inkscape_1.0_and_up" crossing_points_vector="251.91166 | 249.70452 | 0 | 0 | 0 | 3 | 0.50370015 | 2.4989655 | -1 | 396.01801 | 105.80921 | 0 | 0 | 1 | 6 | 0.77645473 | 4.7263855 | 1 | 708.413 | 572.99457 | 0 | 0 | 2 | 7 | 1.7845087 | 5.1221567 | 1 | 105.74334 | 105.34609 | 0 | 0 | 4 | 5 | 2.774885 | 4.2802804 | 1"/>
    </defs>



<g clip-path="url(#ArtboardFrame_87)" id="Layer-2" vectornator:layerName="Layer 2" transform="translate(15,13.353374)">
<clipPath id="ClipPath_2">

            <path d="M 450.763,-0.268002 240.638,199.31 291.75,253.261 260.899,300.621 200.396,239.551 -30.7388,480.423 72.9236,631.959 518.627,613.32 610.18,500.386 605.246,189.545 594.281,-13.2963 530.139,-73.6005 Z" id="path4"/>

        </clipPath>


        <path d="M 447.90792,143.02553 C 478.08608,170.81786 502.26734,206.47197 517.03362,250 1293.1648,1328.3844 -165.83917,707.25626 -14.211801,515.43825 L 514.12526,-12.125079 C 1005.7842,-185.11392 944.23453,357.86055 760.79197,534.8017 m -114.10185,53.79556 c -43.01846,0.008 -87.66849,-23.01309 -130.45151,-77.83873 L 296.73712,293.97495 M 207.08619,205.4341 -13.511338,-12.431955 C -384.45856,-223.48181 -217.10858,540.59194 -15.330255,253.40672 -1.2783129,208.15528 23.040678,171.23221 53.860136,142.65089 M 169.55787,79.824885 c 52.84514,-14.193202 109.97148,-14.074862 162.93624,0.384954" fill="none" opacity="1" class="" stroke="#ffb86c" stroke-linecap="butt" stroke-linejoin="round" stroke-width="30" id="path5" style="clip-rule:evenodd;fill-rule:nonzero;stroke-linecap:round;stroke-linejoin:round" sodipodi:nodetypes="ccccccc" inkscape:path-effect="#path-effect5" inkscape:original-d="M -14.211801,515.43825 514.12526,-12.125079 c 683.32214,-240.424991 298.052,902.123389 2.11335,522.883609 L -13.511338,-12.431955 C -384.45856,-223.48181 -217.10858,540.59194 -15.330255,253.40672 60.445879,9.3849745 434.78625,7.5513017 517.03362,250 1293.1648,1328.3844 -165.83917,707.25626 -14.211801,515.43825 Z"/>
    </g>

</svg>

<svg xmlns="http://www.w3.org/2000/svg" xmlns:vectornator="http://vectornator.io" xml:space="preserve" stroke-miterlimit="10" style="clip-rule:evenodd;fill-rule:nonzero;stroke-linecap:round;stroke-linejoin:round" viewBox="0 0 530 527.188"><g vectornator:layerName="Layer 2" clip-path="url(#ArtboardFrame_87)" transform="translate(15 13.353)"><path fill="none" stroke="#ffb86c" stroke-linecap="butt" stroke-width="30" d="M447.908 143.026c30.178 27.792 54.36 63.446 69.126 106.974 776.13 1078.384-682.873 457.256-531.246 265.438L514.125-12.125c491.66-172.989 430.11 369.986 246.667 546.927M646.69 588.597c-43.018.008-87.668-23.013-130.451-77.838L296.737 293.975m-89.65-88.54L-13.512-12.433c-370.948-211.05-203.598 553.024-1.82 265.839 14.053-45.252 38.372-82.175 69.191-110.756m115.698-62.826c52.845-14.193 109.971-14.075 162.936.385" style="clip-rule:evenodd;fill-rule:nonzero;stroke-linecap:round;stroke-linejoin:round"/></g></svg>
